res/KnobBig.svg

<?xml version="1.0" encoding="UTF-8" standalone="no"?>
<!DOCTYPE svg PUBLIC "-//W3C//DTD SVG 1.1//EN" "http://www.w3.org/Graphics/SVG/1.1/DTD/svg11.dtd">
<svg width="60" height="60" viewBox="0 0 60 60" version="1.1" 
   xmlns="http://www.w3.org/2000/svg" 
   xmlns:xlink="http://www.w3.org/1999/xlink" xml:space="preserve" style="fill-rule:evenodd;clip-rule:evenodd;stroke-linejoin:round;stroke-miterlimit:1.41421;">
   <g transform="matrix(5.71688,0,-1.30104e-18,5.69032,1.74937,1.75069)">
      <circle cx="4.942" cy="5" r="5" style="fill:rgb(106,105,105);"/>
   </g>
   <g transform="matrix(6.35209,0,0,6.32258,-1.76043,-1.45589)">
      <path d="M4.788,0.205c0.07,-0.003 0.141,-0.005 0.212,-0.005c0.071,0 0.142,0.002 0.212,0.005c0.941,0.864 2.141,1.443 3.403,1.639c0.094,0.107 0.183,0.218 0.267,0.333c-0.09,1.275 0.207,2.574 0.841,3.684c-0.025,0.14 -0.057,0.277 -0.094,0.412c-1.053,0.725 -1.885,1.768 -2.357,2.956c-0.124,0.066 -0.251,0.128 -0.382,0.184c-1.223,-0.372 -2.557,-0.372 -3.78,0c-0.131,-0.056 -0.258,-0.118 -0.382,-0.184c-0.472,-1.188 -1.304,-2.231 -2.357,-2.956c-0.037,-0.135 -0.069,-0.272 -0.094,-0.412c0.634,-1.11 0.931,-2.409 0.841,-3.684c0.084,-0.115 0.173,-0.226 0.267,-0.333c1.262,-0.196 2.462,-0.775 3.403,-1.639Z" style="fill:rgb(16,16,16);stroke:rgb(166,166,166);stroke-width:0.05px;"/>
   </g>
   <g transform="matrix(5.79373,-1.69136e-17,1.69136e-17,5.76682,1.03136,1.36823)">
      <circle cx="5" cy="5" r="3.728" style="fill:rgb(48,48,48);stroke:rgb(128,128,128);stroke-width:0.17px;stroke-linecap:round;stroke-miterlimit:1.5;"/>
   </g>
   <g transform="matrix(0.151551,-4.47233e-19,7.31836e-19,0.221814,9.54056,-0.125288)">
      <path d="M145.832,21c1.749,0 3.168,1.419 3.168,3.168l-4.5,9.503l0,77.891c0,4.29 -3.483,7.773 -7.774,7.773l-3.452,0c-4.291,0 -7.774,-3.483 -7.774,-7.773l0,-77.891l-4.5,-9.503c0,-1.749 1.419,-3.168 3.168,-3.168c0,0 4.648,-1.487 10.832,-1.577c5.308,-0.077 10.832,1.577 10.832,1.577Z" style="fill:rgb(235,235,235);"/>
   </g>
</svg>

<?xml version="1.0" encoding="UTF-8" standalone="no"?>
<!DOCTYPE svg PUBLIC "-//W3C//DTD SVG 1.1//EN" "http://www.w3.org/Graphics/SVG/1.1/DTD/svg11.dtd">
<svg width="60px" height="60px" viewBox="0 0 60 60" version="1.1" 
   xmlns="http://www.w3.org/2000/svg" 
   xmlns:xlink="http://www.w3.org/1999/xlink" xml:space="preserve" style="fill-rule:evenodd;clip-rule:evenodd;stroke-linecap:round;stroke-linejoin:round;stroke-miterlimit:1.5;">
   <g transform="matrix(5.71688,0,-1.30104e-18,5.69032,1.74937,1.75069)">
      <circle cx="4.942" cy="5" r="5" style="fill:rgb(106,105,105);"/>
   </g>
   <g transform="matrix(6.35209,0,0,6.32258,-1.76043,-1.26452)">
      <path d="M4.788,0.205C4.858,0.202 4.929,0.2 5,0.2C5.071,0.2 5.142,0.202 5.212,0.205C6.153,1.069 7.353,1.648 8.615,1.844C8.709,1.951 8.798,2.062 8.882,2.177C8.792,3.452 9.089,4.751 9.723,5.861C9.698,6.001 9.666,6.138 9.629,6.273C8.576,6.998 7.744,8.041 7.272,9.229C7.148,9.295 7.021,9.357 6.89,9.413C5.667,9.041 4.333,9.041 3.11,9.413C2.979,9.357 2.852,9.295 2.728,9.229C2.256,8.041 1.424,6.998 0.371,6.273C0.334,6.138 0.302,6.001 0.277,5.861C0.911,4.751 1.208,3.452 1.118,2.177C1.202,2.062 1.291,1.951 1.385,1.844C2.647,1.648 3.847,1.069 4.788,0.205Z" style="fill:rgb(16,16,16);"/>
   </g>
   <g transform="matrix(5.79373,-1.69136e-17,1.69136e-17,5.76682,1.03136,1.36823)">
      <circle cx="5" cy="5" r="3.728" style="fill:rgb(48,48,48);stroke:rgb(128,128,128);stroke-width:0.17px;"/>
   </g>
   <g transform="matrix(0.151551,-4.47233e-19,7.31836e-19,0.221814,9.54056,-0.125288)">
      <path d="M145.832,21C147.581,21 149,22.419 149,24.168L144.5,33.671L144.5,111.562C144.5,115.852 141.017,119.335 136.726,119.335L133.274,119.335C128.983,119.335 125.5,115.852 125.5,111.562L125.5,33.671L121,24.168C121,22.419 122.419,21 124.168,21C124.168,21 128.816,19.513 135,19.423C140.308,19.346 145.832,21 145.832,21Z" style="fill:rgb(235,235,235);"/>
   </g>
</svg>
